assets/images/card/garantee.svg

<svg width="28" height="24" viewBox="0 0 28 24" fill="none" xmlns="http://www.w3.org/2000/svg">
<path d="M27.0658 0H0.619355C0.27871 0 0 0.27871 0 0.619355V19.0452C0 19.3858 0.27871 19.6645 0.619355 19.6645H10.8697L10.7458 23.3497C10.7458 23.5974 10.8697 23.8142 11.0865 23.9381C11.3032 24.031 11.5819 24 11.7677 23.8452L13.8735 22.049L15.9794 23.8452C16.1032 23.9381 16.2271 24 16.3819 24C16.4748 24 16.5677 23.969 16.6606 23.9381C16.8774 23.8452 17.0323 23.5974 17.0013 23.3497L16.8774 19.6645H27.1277C27.4684 19.6645 27.7471 19.3858 27.7471 19.0452V0.619355C27.6852 0.27871 27.4065 0 27.0658 0ZM14.2452 20.7484C14.1213 20.6555 13.9974 20.5935 13.8426 20.5935C13.6877 20.5935 13.5639 20.6555 13.44 20.7484L12.0155 21.9561L12.1394 18.3019C12.6658 18.5187 13.2232 18.6116 13.8426 18.6116C14.4619 18.6116 15.0194 18.4877 15.5458 18.3019L15.6697 21.9561L14.2452 20.7484ZM13.8426 17.3729C11.9226 17.3729 10.3742 15.8245 10.3742 13.9045C10.3742 11.9845 11.9226 10.4361 13.8426 10.4361C15.7626 10.4361 17.311 11.9845 17.311 13.9045C17.311 15.8245 15.7626 17.3729 13.8426 17.3729ZM26.4464 18.3948H16.7845L16.7535 17.6206C17.8374 16.7535 18.5497 15.4219 18.5497 13.9045C18.5497 11.3032 16.4439 9.19742 13.8426 9.19742C11.2413 9.19742 9.13548 11.3032 9.13548 13.9045C9.13548 15.391 9.84774 16.7535 10.9316 17.6206L10.9006 18.3948H1.23871V1.23871H26.4464V18.3948Z" fill="#0029FF"/>
<path d="M4.3967 4.33551H23.287C23.6277 4.33551 23.9064 4.0568 23.9064 3.71616C23.9064 3.37551 23.6277 3.0968 23.287 3.0968H4.3967C4.05605 3.0968 3.77734 3.37551 3.77734 3.71616C3.77734 4.0568 4.05605 4.33551 4.3967 4.33551Z" fill="#0029FF"/>
<path d="M20.8701 6.19354H6.81076C6.47012 6.19354 6.19141 6.47225 6.19141 6.8129C6.19141 7.15354 6.47012 7.43225 6.81076 7.43225H20.8701C21.2108 7.43225 21.4895 7.15354 21.4895 6.8129C21.4895 6.47225 21.2108 6.19354 20.8701 6.19354Z" fill="#0029FF"/>
</svg>

<svg width="28" height="24" fill="none" xmlns="http://www.w3.org/2000/svg"><path d="M27.066 0H.619A.622.622 0 000 .62v18.425c0 .34.279.62.62.62h10.25l-.124 3.685c0 .247.124.464.34.588a.678.678 0 00.682-.093l2.105-1.796 2.106 1.796a.652.652 0 00.403.155c.093 0 .186-.031.279-.062a.582.582 0 00.34-.588l-.124-3.686h10.25c.341 0 .62-.278.62-.619V.62c-.062-.34-.34-.62-.681-.62zm-12.82 20.748a.653.653 0 00-.403-.155.652.652 0 00-.403.155l-1.425 1.208.124-3.654c.527.217 1.084.31 1.704.31.619 0 1.176-.124 1.703-.31l.124 3.654-1.425-1.208zm-.403-3.375a3.463 3.463 0 01-3.469-3.469 3.463 3.463 0 013.469-3.468 3.463 3.463 0 013.468 3.469 3.463 3.463 0 01-3.468 3.468zm12.603 1.022h-9.662l-.03-.774a4.745 4.745 0 001.796-3.716 4.705 4.705 0 00-4.707-4.708 4.705 4.705 0 00-4.708 4.708c0 1.486.713 2.848 1.797 3.716l-.031.774H1.239V1.239h25.207v17.156z" fill="#0029FF"/><path d="M4.397 4.336h18.89c.34 0 .62-.28.62-.62 0-.34-.28-.62-.62-.62H4.397c-.341 0-.62.28-.62.62 0 .34.279.62.62.62zM20.87 6.194H6.81a.62.62 0 00-.619.619c0 .34.28.62.62.62h14.06c.34 0 .619-.28.619-.62 0-.34-.28-.62-.62-.62z" fill="#0029FF"/></svg>
